X:44
T:Leddy's Hornpipe
T:Democratic Rage Hornpipe
M:2/4
L:1/16
Z: Jason R. Fruit <Jason R. Fruit@big-mac>
N: From Bob Walters' playing.
K:Bb
GA | B2Bc BFDF | BcdB edcB | Acfg fdcA | BdcB AFAc |
B2Bc BFDF | BcdB edcB | Acfg fdcA | BdcA B2 :|
|: dc | Bdfg fdcA | Bg2a gfdf | bagf gfdB | edcB AFAc |
Bdfg fdcA | Bg2a gfdf | bagf gfdB | edcA B2 :|

